X:1
T:Ten Thousand Thanks to Jesus
T:William James Kirkpatrick
T:Ten Thousand Thanks to Jesus
T:Public Domain
T:Public Domain
C:William James Kirkpatrick
Z:Public Domain
%%score ( 1 2 ) ( 3 4 )
L:1/8
M:4/4
K:G
V:1 treble 
V:2 treble 
V:3 bass 
V:4 bass 
V:1
 [Gd]2 | [Gd]3 c [GB]2 [DA]2 | [DG]4 D2 D2 | [DG]3 [DG] [DA]2 [DA]2 | [DB]6 [=FB]2 | %5
w: 1.~Ten|thou- sand thanks to|sus, Whose life|som paid, Whose blood|a full|
w: 2.~Ten|thou- sand thanks to|sus; How glad-|we give Ten thou-|sand lives|
w: 3.~Ten|thou- sand thanks to|sus For bless-|ery hour; Ten thou-|sand times|
 [Ec]3 [Ec] [Gd]2 [Ge]2 | [Gd]4 [DB]2 [DA]2 | [^CG]3 [CG] [CF]2 [CG]2 | [CA]6 [CD]2 | %9
w: a- tone- ment For|all the world|has made. Let ev-|ery heart|
w: to Je- sus, Had|we so long|to live. Ten thou-|sand tongues|
w: ten thou- sand, For|love’s re- deem-|ing power; And when|we hear|
 [B,D]3 [B,D] [B,D]2 [B,D]2 | [DG]4 [DG]2 [DG]2 | [FA]3 [FA] G2 [FA]2 | [GB]6 [GB]2 | %13
w: a- dore Him; Let|ev- ery crea-|ture sing Ten thou-|thanks to|
w: shall praise Him, Ten|thou- sand songs|a- scend To Him,|blest Re-|
w: His wel- come Be-|yond the roll-|ing sea, His love|end- less|
 [Gc]3 [Gc] [Gd]2 [Ge]2 | [Gd]4 [GB]2 [DG]2 | [DB]2 [DA]2 [CE]2 [CF]2 | [B,G]6 ||"^Refrain" [Gd]2 | %18
w: Je- sus, Our Sav-|ior and our|King. * * *|||
w: deem- er, To Him,|our dear- est|friend! * * *|||
w: ag- es Our sweet-|est song shall|be! * * *|||
 [Fd]3 [DF] [DF]2 [Fd]2 | [Gd]3 G G2 G2 | [Ge]3 [Gd] [Fc]2 [GB]2 | [Ac]6 [GB]2 | %22
w: ||||
w: ||||
w: ||||
 [FA]3 [FA] [GB]2 [Fc]2 | [Gd]3 [Gd] [GB]2 G2 | [Ge] [Ge]3 [DF] [DF]3 | [DG]6 |] %26
w: ||||
w: ||||
w: ||||
V:2
 x2 | x3 c x4 | x4 D2 D2 | x8 | x8 | x8 | x8 | x8 | x8 | x8 | x8 | x4 G2 x2 | x8 | x8 | x8 | x8 | %16
w: |Je-|our ran-|||||||||sand|||||
w: |Je-|ly would|||||||||our|||||
w: |Je-|ings ev-|||||||||thro’|||||
 x6 || x2 | x8 | x3 G G2 G2 | x8 | x8 | x8 | x6 G2 | x8 | x6 |] %26
w: ||||||||||
w: ||||||||||
w: ||||||||||
V:3
 [G,B,]2 | [G,B,]3 [G,E] [G,D]2 [G,C]2 | [G,B,]4 [G,B,]2 [G,B,]2 | %3
w: ~|~ ~ ~ ~|~ ~ ~|
 [B,,G,]3 [B,,G,] [D,F,]2 [D,F,]2 | G,6 [G,D]2 | [G,C]3 [G,C] [G,B,]2 [G,C]2 | %6
w: ~ ~ ~ ~|~ ~|~ ~ ~ ~|
 [G,B,]4 G,2 [D,F,]2 | [E,A,]3 [E,A,] [E,A,]2 [E,G,]2 | [D,F,]6 [D,F,]2 | %9
w: ~ ~ ~|~ ~ ~ ~|~ ~|
 [G,,G,]3 [G,,G,] [G,,G,]2 [G,,G,]2 | [G,B,]4 [G,B,]2 [G,B,]2 | [D,D]3 [D,D] [B,,D]2 [D,D]2 | %12
w: ~ ~ ~ ~|~ ~ ~|~ ~ ~ ~|
 [G,D]6 [=F,D]2 | [E,C]3 [E,C] [D,B,]2 [C,C]2 | [G,B,]4 [G,D]2 [G,B,]2 | %15
w: ~ ~|~ ~ ~ ~|~ ~ ~|
 [D,G,]2 [D,F,]2 [D,A,]2 [D,A,]2 | [G,,G,]6 || [G,B,]2 | [A,C]3 [A,C] [A,C]2 [A,C]2 | %19
w: ~ ~ ~ Ten|thou-|sand|thanks, Ten thou- sand|
 [B,D]3 [B,D] [B,D]2 [B,D]2 | C3 [B,D] [A,D]2 [G,D]2 | [F,D]6 [G,D]2 | [D,D]3 [D,D] [G,D]2 [A,D]2 | %23
w: thanks, We’ll praise Him|o’er and o’er; And|the life|with Him to live,|
 [B,D]3 [B,D] [G,D]2 [G,B,]2 | [C,C] [C,C]3 [D,A,] [D,A,]3 | [G,,G,B,]6 |] %26
w: Ten thou- sand thou-|sand more! * *||
V:4
 x2 | x8 | x8 | x8 | G,6 x2 | x8 | x4 G,2 x2 | x8 | x8 | x8 | x8 | x8 | x8 | x8 | x8 | x8 | x6 || %17
w: ||||~||~|||||||||||
 x2 | x8 | x8 | C3 x5 | x8 | x8 | x8 | x8 | x6 |] %26
w: |||for||||||

